X:73
T:Cock your Pistol, Charlie
B:Joyce, P. W.; "Old Irish Folk Music and Songs"
R:single jig/song air
M:6/8
Z:Allan Garvin
K:G
L:1/4
EB/ BA/|BG/ AF/|dB/ AF/|DE/ FD/|
EB/ BA/|BG/ AF/|dB/ AG/|E3/2 E3/2:|
Be/ ef/|ge/ fd/|Bd/ AG/|DE/ FD/|
Ee/ ef/|ge/ fd/|Bd/ AF/|E3/2 E3/2|
Be/ ef/|ge/ fd/|Bd/ AF/|DE/ FD/|
E/F/E/ GA/|B/c/d/ ef/|dB/ AF/|E3/2 E3/2||
